src/pos-icons/arrow-top-right-thick.svg

<svg height="24" viewBox="0 0 24 24" width="24" xmlns="http://www.w3.org/2000/svg"><path d="m8.5 18.31-2.81-2.81 6.37-6.38h-4.95v-3.43h11.2v11.2h-3.42v-4.95z"/></svg>

<?xml version="1.0" encoding="UTF-8"?><!DOCTYPE svg PUBLIC "-//W3C//DTD SVG 1.1//EN" "http://www.w3.org/Graphics/SVG/1.1/DTD/svg11.dtd"><svg xmlns="http://www.w3.org/2000/svg" xmlns:xlink="http://www.w3.org/1999/xlink" version="1.1" id="mdi-arrow-top-right-thick" width="24" height="24" viewBox="0 0 24 24"><path d="M8.5,18.31L5.69,15.5L12.06,9.12H7.11V5.69H18.31V16.89H14.89V11.94L8.5,18.31Z" /></svg>
